img/location.svg

<svg width="20" height="25" viewBox="0 0 20 25" fill="none" xmlns="http://www.w3.org/2000/svg">
<path d="M10 0C15.5231 0 20 4.60627 20 10.2889C20 14.6366 17.0308 19.3748 11.1692 24.5541C10.8433 24.8422 10.4278 25.0004 9.99808 25C9.56841 24.9996 9.15313 24.8406 8.82769 24.552L8.44 24.2059C2.83795 19.1616 0 14.5396 0 10.2889C0 4.60627 4.47692 0 10 0ZM10 6.33164C8.97994 6.33164 8.00165 6.74857 7.28036 7.4907C6.55907 8.23283 6.15385 9.23938 6.15385 10.2889C6.15385 11.3384 6.55907 12.345 7.28036 13.0871C8.00165 13.8293 8.97994 14.2462 10 14.2462C11.0201 14.2462 11.9983 13.8293 12.7196 13.0871C13.4409 12.345 13.8462 11.3384 13.8462 10.2889C13.8462 9.23938 13.4409 8.23283 12.7196 7.4907C11.9983 6.74857 11.0201 6.33164 10 6.33164Z" fill="white"/>
</svg>

<svg xmlns="http://www.w3.org/2000/svg" fill="none" viewBox="0 0 20 25"><path fill="#fff" d="M10 0c5.523 0 10 4.606 10 10.289 0 4.348-2.97 9.086-8.83 14.265A1.765 1.765 0 0 1 9.997 25c-.43 0-.845-.16-1.17-.448l-.388-.346C2.838 19.162 0 14.54 0 10.289 0 4.606 4.477 0 10 0zm0 6.332c-1.02 0-1.998.417-2.72 1.159a4.016 4.016 0 0 0-1.126 2.798c0 1.05.405 2.056 1.126 2.798.722.742 1.7 1.16 2.72 1.16 1.02 0 1.998-.418 2.72-1.16a4.016 4.016 0 0 0 1.126-2.798c0-1.05-.405-2.056-1.126-2.798A3.792 3.792 0 0 0 10 6.33z"/></svg>
